symbols/web/print_disabled/materialsymbolsoutlined/print_disabled_wght300gradN25fill1_20px.svg

<svg xmlns="http://www.w3.org/2000/svg" height="20" width="20"><path d="m16.312 18.062-1.854-1.833v.709H5.542v-3.021H2.521V9.083q0-.812.594-1.427.593-.614 1.447-.614h.75L1.938 3.667l.874-.875 14.355 14.396Zm-9.52-2.374h6.416v-.709l-2.416-2.437h-4Zm9.437-1.771h1.25V9.083q0-.812-.604-1.427-.604-.614-1.437-.614H9.375ZM8.646 6.312 5.708 3.375h8.75v2.937Zm6.104 4.105q-.312 0-.573-.25-.26-.25-.26-.584 0-.312.26-.573.261-.26.573-.26.333 0 .583.26.25.261.25.573 0 .334-.25.584-.25.25-.583.25Z"/></svg>

<svg xmlns="http://www.w3.org/2000/svg" height="20" width="20"><path d="M16.312 18.062 14.458 16.229V16.938H5.542V13.917H2.521V9.083Q2.521 8.271 3.115 7.656Q3.708 7.042 4.562 7.042H5.312L1.938 3.667L2.812 2.792L17.167 17.188ZM6.792 15.688H13.208V14.979L10.792 12.542H6.792ZM16.229 13.917H17.479V9.083Q17.479 8.271 16.875 7.656Q16.271 7.042 15.438 7.042H9.375ZM8.646 6.312 5.729 3.396V3.375H14.458V6.312ZM14.75 10.417Q14.438 10.417 14.177 10.167Q13.917 9.917 13.917 9.583Q13.917 9.271 14.177 9.01Q14.438 8.75 14.75 8.75Q15.083 8.75 15.333 9.01Q15.583 9.271 15.583 9.583Q15.583 9.917 15.333 10.167Q15.083 10.417 14.75 10.417Z"/></svg>
